images/bg.svg

<?xml version="1.0" encoding="UTF-8" standalone="no"?>
<!-- Created with Inkscape (http://www.inkscape.org/) -->

<svg
   xmlns:dc="http://purl.org/dc/elements/1.1/"
   xmlns:cc="http://creativecommons.org/ns#"
   xmlns:rdf="http://www.w3.org/1999/02/22-rdf-syntax-ns#"
   xmlns:svg="http://www.w3.org/2000/svg"
   xmlns="http://www.w3.org/2000/svg"
   xmlns:sodipodi="http://sodipodi.sourceforge.net/DTD/sodipodi-0.dtd"
   xmlns:inkscape="http://www.inkscape.org/namespaces/inkscape"
   version="1.1"
   id="svg81"
   width="5120"
   height="2880"
   viewBox="0 0 5120 2880"
   sodipodi:docname="bg.svg"
   inkscape:version="0.92.2 2405546, 2018-03-11">
  <metadata
     id="metadata87">
    <rdf:RDF>
      <cc:Work
         rdf:about="">
        <dc:format>image/svg+xml</dc:format>
        <dc:type
           rdf:resource="http://purl.org/dc/dcmitype/StillImage" />
        <dc:title></dc:title>
      </cc:Work>
    </rdf:RDF>
  </metadata>
  <defs
     id="defs85" />
  <sodipodi:namedview
     pagecolor="#ffffff"
     bordercolor="#666666"
     borderopacity="1"
     objecttolerance="10"
     gridtolerance="10"
     guidetolerance="10"
     inkscape:pageopacity="0"
     inkscape:pageshadow="2"
     inkscape:window-width="3722"
     inkscape:window-height="2012"
     id="namedview83"
     showgrid="false"
     inkscape:zoom="0.25"
     inkscape:cx="2101.0369"
     inkscape:cy="717.17123"
     inkscape:window-x="59"
     inkscape:window-y="59"
     inkscape:window-maximized="0"
     inkscape:current-layer="g5181" />
  <g
     id="g5009"
     style="display:inline">
    <path
       style="display:inline;fill:#6a6985"
       d="M 0,2615.2497 V 2350.4993 L 564.75054,1785.7495 1129.5011,1220.9996 1381.5,1473 1633.4988,1725.0003 2087.7494,1270.7506 2542,816.50082 3000.7504,1275.2504 C 3253.0631,1527.5627 3459.9503,1734 3460.4997,1734 c 0.5493,0 115.6331,-114.6336 255.7417,-254.7414 l 254.7428,-254.7414 574.5004,574.4914 574.5003,574.4914 0.01,253.25 0.01,253.25 h -2560 -2560 v -264.7503 z"
       id="path5011"
       inkscape:connector-curvature="0" />
    <path
       style="display:inline;fill:#d05c4d"
       d="M 4717.9995,1971.4995 4556.5014,1809.9991 4838.2507,1528.2498 5120,1246.5004 v 323.5014 323.5013 l -119.7516,119.7485 C 4934.3851,2079.1132 4880.2721,2133 4879.9973,2133 c -0.2748,0 -73.1738,-72.6752 -161.9978,-161.5005 z M 2862.9994,1137.25 2541.5,815.5 l 321.75,321.4994 c 176.9625,176.8247 321.75,321.6122 321.75,321.75 0,0.1378 -0.1128,0.2506 -0.2506,0.2506 -0.1378,0 -144.9253,-144.7875 -321.75,-321.75 z M 918.50039,477.01671 441.50079,0 h 955.43211 955.4322 l -477.321,476.75 c -262.5266,262.2125 -477.8212,476.87002 -478.4326,477.01671 -0.6113,0.1467 -215.7613,-214.3908 -478.11111,-476.75 z M 3220,474.5 2745.5008,0 H 3694.5 4643.4992 L 4169,474.5 C 3908.0254,735.475 3694.5004,949 3694.5,949 c -4e-4,0 -213.5254,-213.525 -474.5,-474.5 z"
       id="path5144"
       inkscape:connector-curvature="0" />
    <path
       style="display:inline;fill:#ec732d"
       d="M 1648.2518,1206.7487 1396.5,955.00212 1873.9996,477.50106 2351.4992,0 H 2548.5 2745.5008 l 474.4993,474.50007 474.4993,474.50008 -254.7497,254.74975 -254.7498,254.7497 -321.2495,-321.2496 -321.2496,-321.24961 -321.2486,321.24741 -321.2486,321.2474 z"
       id="path5090"
       inkscape:connector-curvature="0" />
    <path
       style="display:inline;fill:#66a255"
       d="m 2220.9065,1779.25 -320.9987,-320.75 321.0463,-320.9996 321.0463,-320.99962 321.2494,321.24942 321.2494,321.2494 -320.499,320.5002 C 2687.7257,1955.7749 2543.1421,2100 2542.7032,2100 c -0.4389,0 -145.2474,-144.3375 -321.7967,-320.75 z M 3322.4986,1596.75 3184.5,1458.5 l 138.25,137.9986 c 76.0375,75.8993 138.25,138.1118 138.25,138.25 0,0.1383 -0.1131,0.2514 -0.2514,0.2514 -0.1382,0 -62.3507,-62.2125 -138.25,-138.25 z"
       id="path5164"
       inkscape:connector-curvature="0" />
    <path
       style="display:inline;fill:#dd7263"
       d="m 3691,1503.5 c 126.7741,-126.775 230.7234,-230.5 230.9984,-230.5 0.275,0 -103.2243,103.725 -229.9984,230.5 -126.7741,126.775 -230.7234,230.5 -230.9984,230.5 -0.275,0 103.2243,-103.725 229.9984,-230.5 z M 816.24977,907.74977 0,91.499541 V 45.749771 0 h 220.74857 220.74856 l 477.50291,477.49899 477.50286,477.499 -133.0008,133.00091 -133.0009,133.0008 251.4987,251.5002 C 1520.3241,1610.8249 1633.2737,1724 1632.999,1724 c -0.2747,0 -367.8119,-367.3126 -816.74923,-816.25023 z M 1766.5,1591 c 73.1484,-73.15 133.2222,-133 133.4972,-133 0.275,0 -59.3488,59.85 -132.4972,133 -73.1484,73.15 -133.2222,133 -133.4972,133 -0.275,0 59.3488,-59.85 132.4972,-133 z M 3832.5,1087 3694.5018,948.99904 4169.0005,474.49952 4643.4992,0 H 4881.7496 5120 V 37.750326 75.500652 L 4545.2492,650.25084 3970.4983,1225.001 Z"
       id="path5150"
       inkscape:connector-curvature="0" />
  </g>
  <g
     id="g5181">
    <path
       style="display:inline;fill:#fda547"
       d="m 3322.715,1596.215 -137.7144,-137.7171 254.7508,-254.7493 254.7507,-254.74922 137.9917,137.99442 137.9917,137.9944 -4.4928,4.3229 c -2.471,2.3777 -117.2336,116.8901 -255.028,254.472 l -250.5352,250.1491 z M 1382,1472.5 l -251.4988,-251.5003 133,-133 133,-132.99998 L 1648,1206.5 l 251.4988,251.5003 -133,133 -133,133 z"
       id="path5209"
       inkscape:connector-curvature="0" />
    <path
       style="display:inline;fill:#dd7263"
       d="m 3691,1503.5 c 126.7741,-126.775 230.7234,-230.5 230.9984,-230.5 0.275,0 -103.2243,103.725 -229.9984,230.5 -126.7741,126.775 -230.7234,230.5 -230.9984,230.5 -0.275,0 103.2243,-103.725 229.9984,-230.5 z M 816.24977,907.74977 0,91.499541 V 45.749771 0 h 220.74857 220.74856 l 477.50291,477.49899 477.50286,477.499 -133.0008,133.00091 -133.0009,133.0008 251.4987,251.5002 C 1520.3241,1610.8249 1633.2737,1724 1632.999,1724 c -0.2747,0 -367.8119,-367.3126 -816.74923,-816.25023 z M 1766.5,1591 c 73.1484,-73.15 133.2222,-133 133.4972,-133 0.275,0 -59.3488,59.85 -132.4972,133 -73.1484,73.15 -133.2222,133 -133.4972,133 -0.275,0 59.3488,-59.85 132.4972,-133 z M 3832.5,1087 3694.5018,948.99904 4169.0005,474.49952 4643.4992,0 H 4881.7496 5120 V 37.750326 75.500652 L 4545.2492,650.25084 3970.4983,1225.001 Z"
       id="path5207"
       inkscape:connector-curvature="0" />
    <path
       style="display:inline;fill:#b4677b"
       d="M 0,1221.2503 V 91.500664 L 565,656.5 1130,1221.4993 565.25033,1786.2497 C 254.63801,2096.8624 0.38801438,2351 0.25033186,2351 0.11264934,2351 0,1842.6126 0,1221.2503 Z M 4262.9997,1517.4997 3970.5007,1224.9995 4545.2504,650.24984 5120,75.500217 V 661.00077 1246.5013 l -281.7507,281.7494 C 4683.2865,1683.2128 4556.2737,1810 4555.9987,1810 c -0.275,0 -132.1245,-131.6251 -292.999,-292.5003 z"
       id="path5205"
       inkscape:connector-curvature="0" />
    <path
       style="display:inline;fill:#f1772d"
       d="M 1647.9998,1206.4998 1396.5009,954.99945 1717.5005,634.03234 2038.5,313.06522 2290.0697,564.4635 2541.6394,815.86177 2220.569,1136.931 1899.4987,1458.0002 Z m 1215.5,-69.5 -320.999,-321.00014 254.7496,-254.74961 254.7497,-254.74961 321.2495,321.24951 321.2495,321.24951 -254.4988,254.50024 C 3300.0259,1343.4749 3185.2759,1458 3185.0002,1458 c -0.2758,0 -144.9509,-144.4501 -321.5004,-321.0002 z"
       id="path5203"
       inkscape:connector-curvature="0" />
    <path
       style="fill:#d05c4d"
       d="M 2779.9992,1054.25 2541.5,815.5 l 238.75,238.4992 c 131.3125,131.1746 238.75,238.6121 238.75,238.75 0,0.1379 -0.1129,0.2508 -0.2508,0.2508 -0.1379,0 -107.5754,-107.4375 -238.75,-238.75 z M 918.5,477 441.50079,0 h 641.99531 641.9952 l 156.5084,156.49653 156.5084,156.49653 -320.5046,320.50347 C 1541.7259,809.77344 1397.0489,954 1396.499,954 1395.9491,954 1180.8496,739.35 918.5,477 Z M 3373.2492,627.74919 3051.9994,306.4982 3205.2517,153.24832 3358.504,-0.00154977 4000.7524,0.24922511 4643.0008,0.5 4168.7499,474.75009 3694.499,949.00019 Z"
       id="path5201"
       inkscape:connector-curvature="0" />
    <path
       style="fill:#51978c"
       d="m 2019.7497,2623.7508 256.2491,-256.2492 133.7506,133.5776 c 73.5628,73.4676 135.0093,134.1048 136.5477,134.7492 3.8644,1.6187 8.2134,1.4651 12.0026,-0.4238 1.7601,-0.8775 61.1381,-59.4896 131.9509,-130.2492 l 128.7506,-128.6537 251.7492,251.7492 L 3322.4995,2880 H 2543 1763.5005 Z"
       id="path5199"
       inkscape:connector-curvature="0" />
    <path
       style="fill:#de652f"
       d="M 2220.5695,1137.1806 2541.639,815.86139 2290.0695,564.46381 2038.5,313.06623 2194.9988,156.53311 2351.4976,0 H 2548.5 2745.5024 l 153.2484,153.25077 153.2483,153.25077 -576.2495,575.99917 c -316.9373,316.79949 -431.7683,431.40549 -255.1801,254.67989 z"
       id="path5197"
       inkscape:connector-curvature="0" />
    <path
       style="fill:#66a255"
       d="m 2220.9065,1779.25 -320.9987,-320.75 321.0463,-320.9996 321.0463,-320.99962 321.2494,321.24942 321.2494,321.2494 -320.499,320.5002 C 2687.7257,1955.7749 2543.1421,2100 2542.7032,2100 c -0.4389,0 -145.2474,-144.3375 -321.7967,-320.75 z M 3322.4986,1596.75 3184.5,1458.5 l 138.25,137.9986 c 76.0375,75.8993 138.25,138.1118 138.25,138.25 0,0.1383 -0.1131,0.2514 -0.2514,0.2514 -0.1382,0 -62.3507,-62.2125 -138.25,-138.25 z"
       id="path5195"
       inkscape:connector-curvature="0" />
    <path
       style="fill:#6c6885"
       d="m 0,2615.7497 v -264.2504 l 564.99979,-564.9991 564.99981,-564.9991 251.4232,251.4217 251.4232,251.4217 -577.173,577.794 -577.173,577.7941 -239.25,0.034 L 0,2880 Z m 4033.7495,-308.5002 -572.7499,-572.7506 254.7507,-254.7492 254.7508,-254.7493 574.7494,574.7501 L 5120,2374.5007 V 2627.2503 2880 h -256.7503 -256.7504 z"
       id="path5193"
       inkscape:connector-curvature="0" />
    <path
       style="fill:#a94f4e"
       d="M 4717.9995,1971.4995 4556.5014,1809.9991 4838.2507,1528.2498 5120,1246.5004 v 323.5014 323.5013 l -119.7516,119.7485 C 4934.3851,2079.1132 4880.2721,2133 4879.9973,2133 c -0.2748,0 -73.1738,-72.6752 -161.9978,-161.5005 z M 3101.4977,1375.75 3018.5,1292.5 l 83.25,82.9977 c 45.7875,45.6488 83.25,83.1113 83.25,83.25 0,0.1388 -0.1135,0.2523 -0.2523,0.2523 -0.1387,0 -37.6012,-37.4625 -83.25,-83.25 z M 1881.5,156 1725.5024,0 H 2038.5 2351.4976 L 2195.5,156 c -85.7987,85.8 -156.4487,156 -157,156 -0.5513,0 -71.2013,-70.2 -157,-156 z m 1017,-3 L 2745.5025,0 H 3052 3358.4975 L 3205.5,153 c -84.1487,84.15 -153.2237,153 -153.5,153 -0.2763,0 -69.3513,-68.85 -153.5,-153 z"
       id="path5191"
       inkscape:connector-curvature="0" />
    <path
       style="fill:#35838a"
       d="m 900.5,2739.511 -141,-140.3992 436.9995,-437.0558 436.9995,-437.0558 321.2504,321.2492 321.2505,321.2493 -256.2492,256.2506 L 1763.5015,2880 1402.5007,2879.955 1041.5,2879.91 900.5,2739.5107 Z m 2170.2493,-111.2617 -251.7491,-251.7506 320.7504,-320.7493 320.7504,-320.7492 454.4985,454.4993 454.4985,454.4993 -117.9974,118.0006 L 4133.5032,2880 h -405.5024 -405.5023 z"
       id="path5189"
       inkscape:connector-curvature="0" />
    <path
       style="fill:#457285"
       d="m 618.93816,2739.5618 140.4355,-140.4381 134.56317,133.8609 c 74.00974,73.6235 137.47517,136.8207 141.03427,140.4382 l 6.4711,6.5772 H 759.97245 478.50267 Z m 3632.56244,22.4376 117.9974,-118.0006 -454.499,-454.7494 c -327.9754,-328.1562 -295.0567,-295.3768 118.251,117.7503 315.0125,314.8748 572.75,572.6123 572.75,572.75 0,0.1377 -106.3118,0.2503 -236.2484,0.2503 H 4133.5032 Z M 1196,2161.5 c 240.0745,-240.075 436.7241,-436.5 436.9991,-436.5 0.275,0 -195.9246,196.425 -435.9991,436.5 C 956.92547,2401.575 760.27586,2598 760.00086,2598 759.72586,2598 955.92547,2401.575 1196,2161.5 Z"
       id="path5187"
       inkscape:connector-curvature="0" />
    <path
       style="fill:#92454f"
       d="m 4837.4993,2091.7502 c -155.0996,-155.2373 -208.9869,-209.3504 -119.7495,-120.2513 l 162.2498,161.9984 120.0002,-119.9971 L 5120,1893.5031 v 240.2485 c 0,132.1366 -0.1128,240.2484 -0.2507,240.2484 -0.1378,0 -127.1503,-127.0124 -282.25,-282.2498 z"
       id="path5185"
       inkscape:connector-curvature="0" />
    <path
       style="fill:#4c8251"
       d="m 2545.5,2635.4812 c -1.65,-0.7456 -207.5248,-205.9089 -457.4996,-455.9184 l -454.4995,-454.5627 133.2494,-133.2495 133.2495,-133.2495 285.2501,285.0017 c 156.8876,156.751 301.5636,301.1994 321.5024,320.9966 l 36.2523,35.9948 320.7487,-320.7475 320.7486,-320.7475 137.9982,138.0009 137.9981,138.0008 -448.9991,449.0655 c -259.5583,259.5967 -450.5645,449.8815 -452.7093,450.9995 -4.2577,2.2195 -8.9712,2.3668 -13.2898,0.4153 z"
       id="path5183"
       inkscape:connector-curvature="0" />
  </g>
</svg>

<svg xmlns="http://www.w3.org/2000/svg" width="5120" height="2880"><path fill="#6a6985" d="M0 2615.25V2350.5l564.75-564.75L1129.502 1221l251.999 252 251.999 252 454.25-454.25L2542 816.5l458.75 458.75c252.313 252.313 459.2 458.75 459.75 458.75.549 0 115.633-114.634 255.741-254.741l254.743-254.742 574.5 574.492 574.5 574.491.01 253.25.01 253.25H.005v-264.75z"/><path fill="#d05c4d" d="M4718 1971.5L4556.5 1810l281.75-281.75L5120 1246.5V1893.503l-119.752 119.749c-65.863 65.861-119.976 119.748-120.25 119.748-.275 0-73.174-72.675-161.998-161.5zm-1855-834.25L2541.5 815.5l321.75 321.5c176.963 176.824 321.75 321.612 321.75 321.75 0 .137-.113.25-.25.25-.138 0-144.926-144.787-321.75-321.75zM918.5 477.017L441.5 0h1910.865l-477.32 476.75c-262.527 262.212-477.822 476.87-478.433 477.017-.612.146-215.762-214.391-478.112-476.75zM3220 474.5L2745.5 0h1898L4169 474.5 3694.5 949 3220 474.5z"/><path fill="#ec732d" d="M1648.252 1206.749L1396.5 955.002l477.5-477.5L2351.5 0h394L3220 474.5 3694.5 949l-254.75 254.75L3185 1458.5l-321.25-321.25L2542.5 816l-321.248 321.248-321.248 321.247z"/><path fill="#66a255" d="M2220.907 1779.25l-321-320.75 321.047-321L2542 816.5l321.25 321.25L3184.5 1459 2864 1779.5c-176.274 176.275-320.858 320.5-321.297 320.5-.439 0-145.247-144.338-321.797-320.75zm1101.592-182.5L3184.5 1458.5l138.25 137.999c76.037 75.899 138.25 138.111 138.25 138.25a.252.252 0 0 1-.251.251c-.139 0-62.351-62.212-138.25-138.25z"/><path fill="#dd7263" d="M3691 1503.5c126.774-126.775 230.723-230.5 230.998-230.5.275 0-103.224 103.725-229.998 230.5-126.774 126.775-230.723 230.5-230.998 230.5-.275 0 103.224-103.725 229.998-230.5zM816.25 907.75L0 91.5V0H441.497L919 477.499l477.503 477.499-133 133L1130.5 1221 1382 1472.5c138.324 138.325 251.274 251.5 250.999 251.5-.275 0-367.812-367.313-816.75-816.25zM1766.5 1591c73.148-73.15 133.222-133 133.497-133 .275 0-59.349 59.85-132.497 133-73.148 73.15-133.222 133-133.497 133-.275 0 59.349-59.85 132.497-133zm2066-504l-137.998-138.001L4169 474.499 4643.498 0H5120v75.5l-574.75 574.75-574.752 574.751z"/><g><path fill="#fda547" d="M3322.715 1596.215l-137.714-137.717 254.75-254.75L3694.502 949l137.992 137.995 137.992 137.994-4.493 4.323c-2.471 2.378-117.234 116.89-255.028 254.472l-250.535 250.15zM1382 1472.5L1130.501 1221l133-133 133-133L1648 1206.5l251.499 251.5-133 133-133 133z"/><path fill="#dd7263" d="M3691 1503.5c126.774-126.775 230.723-230.5 230.998-230.5.275 0-103.224 103.725-229.998 230.5-126.774 126.775-230.723 230.5-230.998 230.5-.275 0 103.224-103.725 229.998-230.5zM816.25 907.75L0 91.5V0H441.497L919 477.499l477.503 477.499-133 133L1130.5 1221 1382 1472.5c138.324 138.325 251.274 251.5 250.999 251.5-.275 0-367.812-367.313-816.75-816.25zM1766.5 1591c73.148-73.15 133.222-133 133.497-133 .275 0-59.349 59.85-132.497 133-73.148 73.15-133.222 133-133.497 133-.275 0 59.349-59.85 132.497-133zm2066-504l-137.998-138.001L4169 474.499 4643.498 0H5120v75.5l-574.75 574.75-574.752 574.751z"/><path fill="#b4677b" d="M0 1221.25V91.5l565 565 565 565-564.75 564.75C254.638 2096.862.388 2351 .25 2351 .113 2351 0 1842.613 0 1221.25zm4263 296.25L3970.5 1225l574.75-574.75L5120 75.5v1171.001l-281.75 281.75C4683.286 1683.213 4556.273 1810 4555.998 1810c-.275 0-132.125-131.625-293-292.5z"/><path fill="#f1772d" d="M1648 1206.5L1396.5 955l321-320.968 321-320.967 251.57 251.398 251.57 251.399-321.071 321.069-321.07 321.07zm1215.5-69.5l-321-321 254.75-254.75L3052 306.5l321.25 321.25L3694.5 949 3440 1203.5c-139.974 139.975-254.724 254.5-255 254.5-.276 0-144.95-144.45-321.5-321z"/><path fill="#d05c4d" d="M2780 1054.25L2541.5 815.5l238.75 238.5C2911.563 1185.173 3019 1292.61 3019 1292.75c0 .137-.113.25-.25.25-.139 0-107.576-107.438-238.75-238.75zM918.5 477L441.5 0h1283.991L1882 156.497l156.508 156.496-320.505 320.504C1541.726 809.773 1397.05 954 1396.5 954c-.55 0-215.65-214.65-477.999-477zm2454.75 150.75L3052 306.497l153.252-153.25L3358.504-.002l642.248.251L4643.001.5 4168.75 474.75 3694.499 949z"/><path fill="#51978c" d="M2019.75 2623.75l256.249-256.248 133.75 133.577c73.563 73.468 135.01 134.105 136.548 134.75 3.865 1.618 8.214 1.464 12.003-.424 1.76-.878 61.138-59.49 131.95-130.25l128.751-128.653 251.75 251.749L3322.498 2880H1763.5z"/><path fill="#de652f" d="M2220.57 1137.18l321.069-321.319-251.57-251.397L2038.5 313.066l156.499-156.533L2351.498 0h394.004l153.249 153.25 153.248 153.252L2475.75 882.5c-316.937 316.8-431.768 431.405-255.18 254.68z"/><path fill="#66a255" d="M2220.907 1779.25l-321-320.75 321.047-321L2542 816.5l321.25 321.25L3184.5 1459 2864 1779.5c-176.274 176.275-320.858 320.5-321.297 320.5-.439 0-145.247-144.338-321.797-320.75zm1101.592-182.5L3184.5 1458.5l138.25 137.999c76.037 75.899 138.25 138.111 138.25 138.25a.252.252 0 0 1-.251.251c-.139 0-62.351-62.212-138.25-138.25z"/><path fill="#6c6885" d="M0 2615.75V2351.5l565-565 565-564.999 251.423 251.422 251.423 251.421-577.173 577.794L478.5 2879.933l-239.25.034L0 2880zm4033.75-308.5L3461 1734.498l254.75-254.75L3970.501 1225l574.75 574.75L5120 2374.5V2880h-513.5z"/><path fill="#a94f4e" d="M4718 1971.5L4556.5 1810l281.75-281.75L5120 1246.5V1893.503l-119.752 119.749c-65.863 65.861-119.976 119.748-120.25 119.748-.275 0-73.174-72.675-161.998-161.5zm-1616.502-595.75l-82.998-83.25 83.25 82.998c45.788 45.648 83.25 83.111 83.25 83.25a.253.253 0 0 1-.252.252c-.139 0-37.602-37.462-83.25-83.25zM1881.5 156L1725.502 0h625.996L2195.5 156c-85.799 85.8-156.449 156-157 156-.551 0-71.201-70.2-157-156zm1017-3L2745.503 0h612.994L3205.5 153c-84.149 84.15-153.224 153-153.5 153-.276 0-69.351-68.85-153.5-153z"/><path fill="#35838a" d="M900.5 2739.511l-141-140.4 437-437.055L1633.498 1725l321.25 321.25L2276 2367.498l-256.248 256.25L1763.5 2880l-361-.045-361.001-.045-141-140.4zm2170.25-111.262L2819 2376.5l320.75-320.75L3460.502 1735l454.498 454.5 454.499 454.499-117.997 118L4133.503 2880H3322.5z"/><path fill="#457285" d="M618.938 2739.562l140.436-140.438 134.563 133.86c74.01 73.624 137.475 136.821 141.034 140.439l6.471 6.577h-562.94zm3632.563 22.437l117.997-118-454.499-454.75c-327.975-328.156-295.057-295.376 118.251 117.75 315.013 314.876 572.75 572.613 572.75 572.75 0 .138-106.312.251-236.248.251h-236.249zM1196 2161.5c240.075-240.075 436.724-436.5 437-436.5.274 0-195.925 196.425-436 436.5S760.276 2598 760 2598c-.274 0 195.925-196.425 436-436.5z"/><path fill="#92454f" d="M4837.5 2091.75c-155.1-155.237-208.988-209.35-119.75-120.251L4880 2133.497l120-119.997 120-119.997v240.249c0 132.136-.113 240.248-.25 240.248-.138 0-127.151-127.012-282.25-282.25z"/><path fill="#4c8251" d="M2545.5 2635.481c-1.65-.745-207.525-205.909-457.5-455.918L1633.5 1725l133.25-133.25L1900 1458.502l285.25 285.002c156.887 156.75 301.563 301.2 321.502 320.996l36.253 35.995 320.748-320.747 320.749-320.748L3322.5 1597l137.998 138-448.999 449.066c-259.558 259.597-450.564 449.882-452.71 451-4.257 2.22-8.97 2.367-13.289.415z"/></g></svg>
